Newaita/actions/32/draw-calligraphic.svg

<?xml version="1.0" encoding="UTF-8"?>
<svg xmlns="http://www.w3.org/2000/svg" xmlns:xlink="http://www.w3.org/1999/xlink" width="32pt" height="32pt" viewBox="0 0 32 32" version="1.1">
<g id="surface1">
<path style=" stroke:none;fill-rule:evenodd;fill:rgb(100%,65.490198%,14.901961%);fill-opacity:1;" d="M 8.179688 16.433594 L 3.96875 18.773438 L 1.617188 28.582031 L 7.230469 22.96875 L 9.101562 24.839844 L 3.488281 30.453125 L 13.324219 28.128906 L 15.664062 23.917969 Z M 8.179688 16.433594 "/>
<path style=" stroke:none;fill-rule:nonzero;fill:rgb(25.882354%,25.882354%,25.882354%);fill-opacity:1;" d="M 24.550781 2.867188 C 23.773438 2.089844 22.523438 2.089844 21.746094 2.867188 L 9.113281 15.5 L 16.597656 22.984375 L 19.40625 20.175781 L 29.226562 10.351562 C 30.007812 9.574219 30.007812 8.324219 29.226562 7.546875 Z M 24.082031 5.207031 L 26.890625 8.015625 C 27.40625 8.53125 27.40625 9.367188 26.890625 9.886719 L 17.535156 19.242188 L 16.597656 20.175781 L 11.921875 15.5 L 12.855469 14.5625 L 13.792969 13.628906 L 22.210938 5.207031 C 22.730469 4.6875 23.566406 4.6875 24.082031 5.207031 Z M 24.082031 5.207031 "/>
</g>
</svg>

<svg xmlns="http://www.w3.org/2000/svg" width="32pt" height="32pt" viewBox="0 0 32 32"><path d="M8.18 16.434l-4.211 2.34-2.352 9.808 5.613-5.613 1.872 1.87-5.614 5.614 9.836-2.324 2.34-4.211zm0 0" fill-rule="evenodd" fill="#ffa726"/><path d="M24.55 2.867a1.978 1.978 0 0 0-2.804 0L9.113 15.5l7.485 7.484 2.808-2.808 9.82-9.824a1.971 1.971 0 0 0 0-2.805zm-.468 2.34l2.809 2.809a1.325 1.325 0 0 1 0 1.87l-9.356 9.356-.937.934-4.676-4.676.933-.938.938-.933 8.418-8.422c.52-.52 1.355-.52 1.871 0zm0 0" fill="#424242"/></svg>
